humanity-icon-theme/Humanity/apps/32/application-community.svg

<?xml version="1.0" encoding="UTF-8" standalone="no"?>
<!-- Created with Inkscape (http://www.inkscape.org/) -->

<svg
   xmlns:svg="http://www.w3.org/2000/svg"
   xmlns="http://www.w3.org/2000/svg"
   xmlns:xlink="http://www.w3.org/1999/xlink"
   version="1.0"
   width="32"
   height="32"
   id="svg1">
  <defs
     id="defs3">
    <linearGradient
       id="linearGradient2790">
      <stop
         id="stop2792"
         style="stop-color:black;stop-opacity:1"
         offset="0" />
      <stop
         id="stop2794"
         style="stop-color:black;stop-opacity:0"
         offset="1" />
    </linearGradient>
    <linearGradient
       id="linearGradient2780">
      <stop
         id="stop2782"
         style="stop-color:white;stop-opacity:1"
         offset="0" />
      <stop
         id="stop2784"
         style="stop-color:white;stop-opacity:0"
         offset="1" />
    </linearGradient>
    <linearGradient
       id="linearGradient6621">
      <stop
         id="stop6622"
         style="stop-color:#f5a108;stop-opacity:0"
         offset="0" />
      <stop
         id="stop6623"
         style="stop-color:#fefdc3;stop-opacity:0.74251497"
         offset="1" />
    </linearGradient>
    <linearGradient
       x1="22.819513"
       y1="28.829224"
       x2="12.849945"
       y2="12.239423"
       id="linearGradient7881"
       xlink:href="#linearGradient6621"
       gradientUnits="userSpaceOnUse"
       gradientTransform="matrix(0.70826822,0,0,0.36975442,0.71122923,2.4674742)" />
    <linearGradient
       x1="24"
       y1="5.0793009"
       x2="24"
       y2="41.0793"
       id="linearGradient2786"
       xlink:href="#linearGradient2780"
       gradientUnits="userSpaceOnUse"
       gradientTransform="matrix(0.65651397,0,0,0.6708371,0.16180423,0.91182441)" />
    <radialGradient
       cx="24.375"
       cy="37.75"
       r="17.375"
       fx="24.375"
       fy="37.75"
       id="radialGradient2796"
       xlink:href="#linearGradient2790"
       gradientUnits="userSpaceOnUse"
       gradientTransform="matrix(0.8057554,0,0,0.2877698,-3.6402877,16.137292)" />
    <linearGradient
       id="linearGradient3242">
      <stop
         id="stop3244"
         style="stop-color:#f8b17e;stop-opacity:1"
         offset="0" />
      <stop
         id="stop3246"
         style="stop-color:#e35d4f;stop-opacity:1"
         offset="0.31209752" />
      <stop
         id="stop3248"
         style="stop-color:#c6262e;stop-opacity:1"
         offset="0.57054454" />
      <stop
         id="stop3250"
         style="stop-color:#690b54;stop-opacity:1"
         offset="1" />
    </linearGradient>
    <linearGradient
       id="linearGradient2490">
      <stop
         id="stop2492"
         style="stop-color:#791235;stop-opacity:1"
         offset="0" />
      <stop
         id="stop2494"
         style="stop-color:#dd3b27;stop-opacity:1"
         offset="1" />
    </linearGradient>
    <linearGradient
       x1="24"
       y1="6"
       x2="24"
       y2="51"
       id="linearGradient3853"
       xlink:href="#linearGradient3242"
       gradientUnits="userSpaceOnUse"
       gradientTransform="matrix(0.66855915,0,0,0.67851695,-0.1243507,-0.69400426)" />
    <linearGradient
       x1="17"
       y1="45"
       x2="17"
       y2="6"
       id="linearGradient3861"
       xlink:href="#linearGradient2490"
       gradientUnits="userSpaceOnUse"
       gradientTransform="matrix(0.66855915,0,0,0.67851695,-0.1243507,-0.69400426)" />
  </defs>
  <path
     d="m 30,27.000598 a 14,5 0 0 1 -27.9999999,0 14,5 0 1 1 27.9999999,0 z"
     id="path2788"
     style="opacity:0.3;color:black;fill:url(#radialGradient2796);fill-opacity:1;fill-rule:nonzero;stroke:none;stroke-width:1;marker:none;visibility:visible;display:inline;overflow:visible" />
  <path
     d="M 9.260509,5.0735316 C 5.6717566,4.8943309 3.9998593,7.2331059 3.0954924,9.4579575 2.1980218,12.387797 3.4666674,17.921574 9.683631,17.500588 c 3.546125,0 4.955583,-3.689224 6.82189,-4.646926 1.696124,-0.650596 1.829616,-0.708824 3.621597,-0.708824 2.490296,0 6.9937,-1.828323 6.993701,-3.6424461 C 26.35536,7.0466684 24.32317,4.4542503 20.588891,4.8960978 18.211871,5.1767545 15.963068,6.9004561 15.375648,7.7581755 13.936668,6.4706109 12.099307,5.0735316 9.260509,5.0735316 z"
     id="path7876"
     style="fill:url(#linearGradient7881);fill-opacity:1;fill-rule:evenodd;stroke:none" />
  <path
     d="M 15.8118,6.2259268 C 22.021828,-0.07396868 30.55586,5.7326714 30.499725,11.707326 30.448407,17.1692 26.34506,19.78496 16.036344,29.5 5.2462223,20.462233 1.4444755,18.37809 1.5006113,11.897759 1.5567471,5.1896339 8.8625985,0.15515429 15.8118,6.2259268 z"
     id="path920"
     style="fill:url(#linearGradient3853);fill-opacity:1;fill-rule:evenodd;stroke:url(#linearGradient3861);stroke-width:0.99999982;stroke-linecap:butt;stroke-linejoin:miter;stroke-miterlimit:4;stroke-opacity:1;stroke-dasharray:none" />
  <path
     d="M 10.091578,4.5385376 C 9.5450038,4.4907271 9.0001236,4.5028088 8.4913253,4.5804648 5.096354,5.0986281 2.5322209,8.2643212 2.5006352,12.064492 2.4743652,15.117768 3.25983,16.964523 5.4344321,19.317918 7.530204,21.586 11.024321,24.303175 16.02072,28.5 c 4.781324,-4.517076 8.220883,-7.542042 10.360611,-9.915811 2.220477,-2.463348 3.095016,-4.19809 3.118441,-6.708371 C 29.523922,9.2880683 27.622844,6.5711606 25.006756,5.2932294 22.390666,4.015298 19.178441,4.0803417 16.328461,6.9912857 a 0.73629992,0.75236374 0 0 1 -0.98477,0.041927 C 13.520989,5.4300532 11.731302,4.6819689 10.091578,4.5385376 z"
     id="path2778"
     style="opacity:0.4;fill:none;stroke:url(#linearGradient2786);stroke-width:0.99999994;stroke-linecap:butt;stroke-linejoin:miter;stroke-miterlimit:4;stroke-opacity:1;stroke-dasharray:none" />
</svg>

<?xml version="1.0" encoding="UTF-8" standalone="no"?>
<!-- Created with Inkscape (http://www.inkscape.org/) -->
<svg id="svg1" xmlns="http://www.w3.org/2000/svg" height="32" width="32" version="1.0" xmlns:xlink="http://www.w3.org/1999/xlink">
 <defs id="defs3">
  <linearGradient id="linearGradient7881" y2="12.239" gradientUnits="userSpaceOnUse" x2="12.85" gradientTransform="matrix(.70827 0 0 .36975 .71123 2.4675)" y1="28.829" x1="22.82">
   <stop id="stop6622" style="stop-color:#f5a108;stop-opacity:0" offset="0"/>
   <stop id="stop6623" style="stop-color:#fefdc3;stop-opacity:.74251" offset="1"/>
  </linearGradient>
  <linearGradient id="linearGradient2786" y2="41.079" gradientUnits="userSpaceOnUse" x2="24" gradientTransform="matrix(.65651 0 0 .67084 .16180 .91182)" y1="5.0793" x1="24">
   <stop id="stop2782" style="stop-color:#fff" offset="0"/>
   <stop id="stop2784" style="stop-color:#fff;stop-opacity:0" offset="1"/>
  </linearGradient>
  <radialGradient id="radialGradient2796" gradientUnits="userSpaceOnUse" cy="37.75" cx="24.375" gradientTransform="matrix(.80576 0 0 .28777 -3.6403 16.137)" r="17.375">
   <stop id="stop2792" offset="0"/>
   <stop id="stop2794" style="stop-opacity:0" offset="1"/>
  </radialGradient>
  <linearGradient id="linearGradient3853" y2="51" gradientUnits="userSpaceOnUse" x2="24" gradientTransform="matrix(.66856 0 0 .67852 -.12435 -0.694)" y1="6" x1="24">
   <stop id="stop3244" style="stop-color:#f8b17e" offset="0"/>
   <stop id="stop3246" style="stop-color:#e35d4f" offset=".31210"/>
   <stop id="stop3248" style="stop-color:#c6262e" offset=".57054"/>
   <stop id="stop3250" style="stop-color:#690b54" offset="1"/>
  </linearGradient>
  <linearGradient id="linearGradient3861" y2="6" gradientUnits="userSpaceOnUse" x2="17" gradientTransform="matrix(.66856 0 0 .67852 -.12435 -0.694)" y1="45" x1="17">
   <stop id="stop2492" style="stop-color:#791235" offset="0"/>
   <stop id="stop2494" style="stop-color:#dd3b27" offset="1"/>
  </linearGradient>
 </defs>
 <path id="path2788" style="opacity:.3;color:black;fill:url(#radialGradient2796)" d="m30 27.001a14 5 0 0 1 -28 0 14 5 0 1 1 28 0z"/>
 <path id="path7876" style="fill:url(#linearGradient7881);fill-rule:evenodd" d="m9.2605 5.0735c-3.5887-0.1792-5.2606 2.1596-6.165 4.3845-0.8975 2.93 0.3712 8.464 6.5881 8.043 3.5461 0 4.9556-3.6892 6.8219-4.6469 1.6961-0.6506 1.8296-0.70882 3.6216-0.70882 2.4903 0 6.9937-1.8283 6.9937-3.6424-0.767-1.4562-2.799-4.0486-6.533-3.6068-2.377 0.2807-4.626 2.0044-5.213 2.8621-1.439-1.2876-3.277-2.6847-6.1155-2.6847z"/>
 <path id="path920" style="fill-rule:evenodd;stroke:url(#linearGradient3861);fill:url(#linearGradient3853)" d="m15.812 6.2259c6.21-6.2999 14.744-0.4932 14.688 5.4811-0.052 5.462-4.155 8.078-14.464 17.793-10.79-9.038-14.592-11.122-14.535-17.602 0.0557-6.7084 7.3616-11.743 14.311-5.6721z"/>
 <path id="path2778" style="opacity:.4;stroke:url(#linearGradient2786);fill:none" d="m10.092 4.5385c-0.547-0.0478-1.0919-0.0357-1.6007 0.042-3.3949 0.5181-5.9591 3.6838-5.9907 7.4835-0.0262 3.054 0.7592 4.901 2.9338 7.254 2.0958 2.268 5.5896 4.985 10.587 9.182 4.7813-4.5171 8.2209-7.542 10.361-9.9158 2.2205-2.4633 3.095-4.1981 3.1184-6.7084 0.024-2.5879-1.877-5.3048-4.493-6.5828-2.616-1.2779-5.829-1.2129-8.679 1.6981a0.7363 0.75236 0 0 1 -0.98477 0.041927c-1.822-1.6031-3.612-2.3512-5.251-2.4947z"/>
</svg>
